X:83
T:Kansas City Reel
N:Transcribed by Bruce Thomson
M:C
L:1/8
K:A
(3EFG|:â€Aâ€A2Ac BAcB|Acega2ga|â€Eâ€bgeg fecd|efed cABG|
â€œAâ€A2Ac BAcB|Acega2ga|â€Eâ€bgeg fecd|[1ecBG â€œAâ€A2(3EFG:|[2ecBGâ€Aâ€A4|]
|:â€Aâ€e4e3a|fecd ec3|â€Eâ€B2efg2ef|gfeg fecd|
â€œAâ€e4e3a|fecd ec3|â€Eâ€B2eg fefg|[1â€³Aâ€afecA4:|[2â€ Aâ€a3aa4|]

